icons/svg/note.svg

<svg width="24" height="24" viewBox="0 0 24 24" fill="none" xmlns="http://www.w3.org/2000/svg">
<path d="M16.5 4H8C5.79086 4 4 5.79086 4 8V16.5C4 18.7091 5.79086 20.5 8 20.5H14.8431C15.904 20.5 16.9214 20.0786 17.6716 19.3284L19.3284 17.6716C20.0786 16.9214 20.5 15.904 20.5 14.8431V8C20.5 5.79086 18.7091 4 16.5 4Z" stroke="currentColor" stroke-width="1.5" stroke-linecap="round" stroke-linejoin="round"/>
<path d="M20.5 14H17C15.3431 14 14 15.3431 14 17V20.5" stroke="currentColor" stroke-width="1.5" stroke-linecap="round" stroke-linejoin="round"/>
<path d="M8 8H15.5" stroke="currentColor" stroke-width="1.5" stroke-linecap="round" stroke-linejoin="round"/>
<path d="M8 12H13" stroke="currentColor" stroke-width="1.5" stroke-linecap="round" stroke-linejoin="round"/>
</svg>

<svg xmlns="http://www.w3.org/2000/svg" width="24" height="24" fill="none" viewBox="0 0 24 24"><path stroke="currentColor" stroke-linecap="round" stroke-linejoin="round" stroke-width="1.5" d="M16.5 4H8a4 4 0 0 0-4 4v8.5a4 4 0 0 0 4 4h6.843a4 4 0 0 0 2.829-1.172l1.656-1.656a4 4 0 0 0 1.172-2.829V8a4 4 0 0 0-4-4"/><path stroke="currentColor" stroke-linecap="round" stroke-linejoin="round" stroke-width="1.5" d="M20.5 14H17a3 3 0 0 0-3 3v3.5M8 8h7.5M8 12h5"/></svg>
